cps 0.66

d1 $ n "~ 3 3/2 [~ 0]" # s "bd606"

let beat1 = "1 ~ ~ ~" 
    beat2 ="1 ~ [3/4 3/4] [1/2 0]" 
    in d2 $ n (cat [beat1, beat2]  ) # s "sn2"

d3 $ delayline' (1/8) "0.9" 
   $ overlay (n "4(4,16)" # s "hh2") 
   $ n "0(<4 4 4 8>,16,1)" # s "hh2"

let mel1 =rev $ ("3/4 [~ 0] 1 [~ 2]" + "<0 2 1 3>")
    scales =slow 4 $ "<ionian minor>" 
in 
    d4 $ degree (cat [mel1, mel1 * 2]) # scale_p scales # ctranspose (slow 4 $ "<-4 1>") # s "sawpluck" # gain "1"
    -- d5 $ s "bd606*4"
